!!!SOCIAL_FUNCTION:	southern dance songs
!!!REG: Great Lakes
!!!PDT:	1913
!!!OTL: No_122_Southern_Dance_Song.krn
**kern	**kern
*staff2	*staff1
=1-	=1-
*clefF4	*clefF4
*k[b-e-a-d-g-]	*k[b-e-a-d-g-]
*M3/8	*M3/8
12GG-^/	16e-\LL
.	16e-\JJ
12r	.
.	4e-\
12GG-/	.
8r	.
=2||	=2||
*M2/8	*M2/8
4r	8e-\L
.	8B-\J
=3	=3
4r	4B-\
=4||	=4||
*M3/8	*M3/8
4.r	16d-\LL
.	16d-\JJ
.	4d-\
=5||	=5||
*M2/8	*M2/8
4r	8d-\L
.	8d-\J
=6	=6
4r	4B-\
=7||	=7||
*M3/8	*M3/8
4.r	16A-\LL
.	16A-\JJ
.	4A-\
=8||	=8||
*M2/8	*M2/8
4r	8A-\L
.	8A-\J
=9	=9
4r	4F\
=10	=10
4r	8A-\L
.	8A-\J
=11	=11
4r	4B-\
=12	=12||
*	*M3/8
=	16d-\LL
*M3/8	*
4.r	.
.	16d-\JJ
.	4B-\
.	=13||
*	*M2/8
=13||	8B-\L
*M2/8	*
4r	.
.	8A-\J
.	=14
=14	4F\
4r	.
.	=15
=15	8A-\L
4r	.
.	8A-\J
.	=16
=16	4B-\
4r	.
.	=17||
*	*M3/8
=17||	16d-\LL
*M3/8	*
4.r	.
.	16d-\JJ
.	4B-\
.	=18||
*	*M2/8
=18||	8B-\L
*M2/8	*
4r	.
.	8A-\J
.	=19
=19	4F\
4r	.
.	=20
=20	8A-\L
4r	.
.	8A-\J
.	=21
=21	4B-\
4r	.
.	=22||
*	*M3/8
=22||	16d-\LL
*M3/8	*
4.r	.
.	16d-\JJ
.	4B-\
.	=23||
*	*M2/8
=23||	8B-\L
*M2/8	*
4r	.
.	8A-\J
.	=24
=24	4F\
4r	.
.	=25
=25	8A-\L
4r	.
.	8A-\J
.	=26
=26	4B-\
4r	.
.	==
*	*-
==	==
*-	*-
